X:210
T:Steirische Jodler und Taenze Nr. 1 - 48 (8.)
C:traditionell
A:Salzkammergut
S:MIDI erhalten von Christian Amon. Nach einer kopie im besitz von Johann Stoeckl eines manuscriptes. Stoeckl(zitiert von Amon): "diese sammlung wurde 1935 im hause der familie Hohenlohe-Schillingfuerst gefunden. Sie wurde von einem der beiden brueder Steinegger 1866 verfasst. Die originale sind im Ausseer Kammerhofmuseum".
M:3/4
L:1/8
K:G
V:1
g2 dg Bg | f2 df A2 | f2 df Af | g2 dg B2 |\
g2 dg Bg | f2 df A2 | f2 df Af | g4 z2 |*
V:2
b2 gb db | a2 fa d2 | a2 fa da | b2 gb d2 |\
b2 gb db | a2 fa d2 | a2 fa da | b4 z2 |*
